X:1
T:Wayfaring Stranger
T:Wayfaring Stranger
T:Spiritual
T:Arrangement © 1998, Richard W. Adams Reproduce freely for Christian worship &amp; devotions
C:Spiritual
Z:Arrangement © 1998, Richard W. Adams
Z:Reproduce freely for Christian worship & devotions
%%score ( 1 2 ) ( 3 4 )
L:1/8
Q:1/4=140
M:4/4
K:F
V:1 treble 
V:2 treble 
V:3 bass 
V:4 bass 
V:1
 [A,D]2 [A,D]2 | [CA]2 [CA]6 x2 | [CG]2 [CA]2 [A,G]2 [CF]2 | [A,D]6 [A,D]2 | [A,D]2 [CA]2 [CG]4- | %5
 [CG]2 [A,D]2 | [CF]2 [CG]2 [CA]4- x2 | [CA]6 [A,D]2 | [A,D]2 [CA]2 [CA]4- | %9
 [CA]2 [CF]2 [CG]2 [CA]2 | [CF]2 [A,D]6 | [A,D]2 [A,D]2 [CA]2 [CG]2- | [CG]4 [CF]2 [A,D]2 [A,C]2 | %13
 [A,D]6 [DA]2 | [DA]2 [Fc]2 [Fd]6 | [Ac]2 [Fd]2 [Dc]2 [CB]2 | [CA]6 [CA]2 | [CA]2 [Fc]2 [Fd]4- | %18
 [Fd]2 [Fc]2 [Ad]2 [Fc]2 | [DA]6 ||"^Refrain" [DA]2 | [EB]2 [Fc]2 [DA]4- | [DA]2 [CF]2 G2 A2 | %23
 F2 [A,D]6 | [A,D]2 [A,D]2 [DA]2 [CG]2- | [CG]4 (AG) [A,D]2 | [A,C]2 [A,D]2 |] %27
V:2
 x4 | x10 | x8 | x8 | x8 | x4 | x10 | x8 | x8 | x8 | x8 | x8 | x10 | x8 | x10 | x8 | x8 | x8 | x8 | %19
 x6 || x2 | x8 | x8 | x8 | x8 | x4 C2 x2 | x4 |] %27
V:3
 [A,,D,F,]2 [D,F,]2 | [F,,F,]2 A,6 [E,,A,,-]2 | [A,,C,E,]2 [F,,C,A,]2 [C,A,]2 [F,,D,]2 | %3
 (C,2 F,2 D,2) [C,F,]2 | [C,,F,,]2 [F,,C,A,]2 E,4- | [G,,E,]2 [F,,C,G,]2 | %6
 [A,,C,A,]2 [A,,C,A,]2 F,4 ([A,,,D,,]2 | [C,,F,,]2) [C,,G,,]2 [C,,A,,]2 [A,,A,]2 | %8
 [F,A,]2 [F,A,]6 | [F,,A,,C,]2 [F,,C,G,]2 [F,A,]2 [F,,D,]2 | C,6 [F,,C,]2 | %11
 [F,,C,]2 [A,,F,]2 [G,,E,]4- | [G,,E,]4 [F,,D,]2 [F,,C,]2 [E,,A,,]2 | C,6 [A,,F,]2 | %14
 [A,,F,]2 [D,F,]2 F,6 | [D,F,]2 [D,A,]2 [D,F,]2 [E,,C,]2 | [C,,A,,]6 [C,,A,,]2 | %17
 [C,,A,,]2 [C,A,]2 [A,,D,C]4- | [A,,D,C]2 [D,F,]2 [C,F,]2 [A,,D,]2 | [F,,C,]6 || [C,F,]2 | %21
 [E,B,]2 [F,C]2 [D,A,]4- | [D,A,]2 [D,F,]2 [E,A,]2 [G,C]2 | [D,A,]2 [C,F,]6 | %24
 [A,,C,F,]2 [A,,F,A,]2 [F,A,]2 [E,A,]2- | [E,A,]4 [D,F,]2 [C,F,]2 | [A,,D,]2 [A,,D,F,]2 |] %27
V:4
 x4 | x2 F,,2 G,,2 x4 | x8 | F,,6 x2 | x4 (G,,2 G,,2) | x4 | x4 [A,,C,]2 x4 | x8 | %8
 x2 C,2 (A,,2 C,2) | x8 | F,,2 F,2 D,2 x2 | x8 | x10 | (F,,2 G,,2 A,,2) x2 | x4 (C,2 B,,2 A,,2) | %15
 x8 | x8 | x8 | x8 | x6 || x2 | x8 | x8 | x8 | x8 | x8 | x4 |] %27

